X:81
M:6/8
L:1/8
K:G
|: ddd eBc | ccc dAB | BBB cdB | ABG AFD | GDD BGG | dBB g3 | dBB cAA | G3 [G,3G3] :|

